X: 16194
T: Green Shades Of Gask, The
R: jig
M: 6/8
K: Gmajor
GAG BGB|gag f2 e|dgd BgB|aAA A2 B|
GAG BGB|gag f2 e|dcB ABc|BGG G2:|
gag gfe|aba afd|gfg aga|bee e2 f|
[1 gag gfe|aba agf|gfe dBA|BGG G2:|
[2 gbg ege|dBd g2 e|dcB ABc|BGG G2||

